X: 1
P: The Gravel Walk
C: from The Portland Collection
C: Arr. T. Traub 8-4-03
R: Reel
K: G
M: 4/4
L: 1/8
"Am"A2 eA BAeA|"Am"A2 eA "G"BAGB|"Am"A2 eA Bdef|"G"gedc BAGB |"Am"A2 eA BAeA|"Am"A2 eA "G"BAGB|"Am"A2 eA Bdef|"G"gedc BAGB ||
"Am"A2 aA gAfA|"Am"A2 eA "G"BAGB|"Am"A2 aA gAfa|"G"gedc BAGB|"Am"A2 aA gAfA|"Am"A2 eA "G"BAGB|"Am"ABcd egfa|"G"gedc BAGB||
"Am"cAAG A2 AB|"Am"cAAc "G"BGBd|"Am"cAAG A2 ef|"G"gfge dBGB|"Am"cAAG A2 AB|"Am"cAAc "G"BGBd|"Am"cAAG A2 ef|"C"gfge "G"dBGB||
"C"c2 gc acgc|"C"c2 gc "G"BAGB|"C"c2 gc acga|"Am"gedc "G"BAGB|"C"c2 gc acgc|"C"c2 gc "G"BAGB|"Am"Aaag agea|"G"gedc BAGB|]
